packages/foundations/assets/icons/functional/images/transportation/ship_20_inverted.svg

<svg width="20" height="20" viewBox="0 0 20 20" fill="none" xmlns="http://www.w3.org/2000/svg">
<g clip-path="url(#clip0_2214_7266)">
<path fill-rule="evenodd" clip-rule="evenodd" d="M15.7924 15.0972C16.2163 15.5556 16.6132 15.8243 16.8988 15.8243C17.3683 15.8243 17.7488 16.2049 17.7488 16.6743C17.7488 17.1438 17.3683 17.5243 16.8988 17.5243C16.296 17.5243 15.7156 17.2921 15.1578 16.8276C14.5533 17.2921 13.9468 17.5243 13.3382 17.5243C12.7296 17.5243 12.1292 17.2844 11.5368 16.8046C10.9078 17.2844 10.3034 17.5243 9.72344 17.5243C9.1435 17.5243 8.55663 17.2984 7.96283 16.8466C7.45432 17.2984 6.91046 17.5243 6.33125 17.5243C5.75205 17.5243 5.13424 17.2837 4.47783 16.8026C3.99367 17.1838 3.46734 17.3744 2.89883 17.3744C2.42939 17.3744 2.04883 16.9938 2.04883 16.5244C2.04883 16.0549 2.42939 15.6744 2.89883 15.6744C3.15933 15.6744 3.45248 15.4989 3.77826 15.1479C4.09248 14.7495 4.6835 14.7134 5.04393 15.0705C5.1375 15.1633 5.83788 15.8243 6.26329 15.8243C6.53824 15.8243 6.8505 15.613 7.20006 15.1904C7.50705 14.7471 8.14381 14.698 8.51512 15.0889C8.60041 15.1787 9.27665 15.8241 9.72344 15.8243C10.1376 15.8245 10.8412 15.1799 10.9259 15.0904C11.2643 14.7325 11.8351 14.7362 12.1688 15.0985C12.2501 15.1868 12.9084 15.8243 13.3669 15.8243C13.6488 15.8243 14.0627 15.6011 14.5538 15.0871C14.8924 14.7328 15.4597 14.7374 15.7924 15.0972ZM12.6488 2.47559C12.9999 2.47559 13.3104 2.6906 13.4379 3.00945L13.7818 4.35559L6.87987 4.36265C6.46185 4.36265 6.08967 4.77269 6.08967 5.20602C6.08967 5.63935 6.51403 6.05559 6.87987 6.05559H14.2068L14.5618 7.47559H17.1003C17.625 7.47559 18.0053 7.93808 17.9449 8.42737C17.8844 8.91666 16.6137 11.5098 15.6546 12.4648C15.3195 12.8376 15.0101 13.1131 14.7266 13.2912C14.3014 13.5583 13.8288 13.7183 13.3154 13.7183C12.7693 13.7183 12.1898 13.4961 11.5768 13.0516C10.9999 13.6472 10.4123 13.9549 9.81396 13.9748C9.21563 13.9947 8.60059 13.727 7.96883 13.1716C7.45632 13.7086 6.91046 13.9771 6.33125 13.9771C5.75205 13.9771 5.16457 13.7053 4.56883 13.1616C4.04178 13.7053 3.48512 13.9771 2.89883 13.9771C2.4655 13.9771 2.04883 13.62 2.04883 13.1716V3.32559C2.04883 2.89225 2.37313 2.47559 2.89883 2.47559H12.6488ZM12.9358 7.81655C12.3835 7.81655 11.9358 8.26427 11.9358 8.81655C11.9358 9.36884 12.3835 9.81655 12.9358 9.81655C13.488 9.81655 13.9358 9.36884 13.9358 8.81655C13.9358 8.26427 13.488 7.81655 12.9358 7.81655ZM8.93576 7.81655C8.38347 7.81655 7.93576 8.26427 7.93576 8.81655C7.93576 9.36884 8.38347 9.81655 8.93576 9.81655C9.48804 9.81655 9.93576 9.36884 9.93576 8.81655C9.93576 8.26427 9.48804 7.81655 8.93576 7.81655ZM4.93576 7.81655C4.38347 7.81655 3.93576 8.26427 3.93576 8.81655C3.93576 9.36884 4.38347 9.81655 4.93576 9.81655C5.48804 9.81655 5.93576 9.36884 5.93576 8.81655C5.93576 8.26427 5.48804 7.81655 4.93576 7.81655Z" fill="#1A1C1F"/>
</g>
<defs>
<clipPath id="clip0_2214_7266">
<rect width="20" height="20" fill="white"/>
</clipPath>
</defs>
</svg>

<svg xmlns="http://www.w3.org/2000/svg" width="20" height="20" fill="none"><g clip-path="url(#a)"><path fill="#1A1C1F" fill-rule="evenodd" d="M15.792 15.097c.424.459.821.727 1.107.727a.85.85 0 1 1 0 1.7q-.904 0-1.741-.696-.907.696-1.82.696-.912 0-1.801-.72-.944.72-1.814.72t-1.76-.677q-.764.677-1.632.677-.869 0-1.853-.721-.725.57-1.58.571a.85.85 0 0 1 0-1.7q.391 0 .88-.526a.85.85 0 0 1 1.266-.078c.094.093.794.754 1.22.754q.412 0 .936-.634a.85.85 0 0 1 1.315-.101c.085.09.762.735 1.208.735.415 0 1.118-.644 1.203-.734a.85.85 0 0 1 1.243.008c.081.089.74.726 1.198.726.282 0 .696-.223 1.187-.737a.85.85 0 0 1 1.238.01M12.65 2.476a.85.85 0 0 1 .789.533l.344 1.347-6.902.007c-.418 0-.79.41-.79.843s.424.85.79.85h7.327l.355 1.42H17.1a.85.85 0 0 1 .845.951c-.06.49-1.331 3.083-2.29 4.038q-.503.56-.928.826a2.63 2.63 0 0 1-1.412.427q-.819 0-1.738-.666-.866.893-1.763.923t-1.845-.803q-.77.805-1.638.805t-1.762-.815q-.79.815-1.67.815c-.433 0-.85-.357-.85-.805V3.326c0-.434.324-.85.85-.85zm.287 5.34a1 1 0 1 0 0 2 1 1 0 0 0 0-2m-4 0a1 1 0 1 0 0 2 1 1 0 0 0 0-2m-4 0a1 1 0 1 0 0 2 1 1 0 0 0 0-2" clip-rule="evenodd"/></g><defs><clipPath id="a"><path fill="#fff" d="M0 0h20v20H0z"/></clipPath></defs></svg>
